site/assets/images/404/hex.svg

<?xml version="1.0" encoding="UTF-8" standalone="no"?>
<svg width="105px" height="105px" viewBox="0 0 105 105" version="1.1" xmlns="http://www.w3.org/2000/svg" xmlns:xlink="http://www.w3.org/1999/xlink" xmlns:sketch="http://www.bohemiancoding.com/sketch/ns">
    <!-- Generator: Sketch 3.4.3 (16044) - http://www.bohemiancoding.com/sketch -->
    <title>hex</title>
    <desc>Created with Sketch.</desc>
    <defs></defs>
    <g id="Page-1" stroke="none" stroke-width="1" fill="none" fill-rule="evenodd" sketch:type="MSPage">
        <g id="hex" sketch:type="MSLayerGroup">
            <path d="M19.2456472,21.1226336 C19.2456472,21.1226336 18.0192259,23.743626 17.9347462,24.279313 L0.194809645,66.3984733 C0.194809645,66.3984733 0.24677665,66.8144656 0.562576142,67.3469466 C1.04280457,68.1578244 39.0869162,99.550687 39.5394289,100.004618 C39.9924746,100.458817 43.9515609,96.9385115 44.4413832,96.7822137 C44.9312056,96.6264504 89.0192132,91.4662214 89.5905838,91.3141985 C90.2461675,91.1405344 91.0976269,90.5137405 91.2316751,89.3125191 C91.3566624,88.1917176 104.25514,40.053626 104.540825,39.1951908 C104.826244,38.3367557 104.314302,37.7719466 104.195444,37.6685496 C104.07632,37.5651527 67.3457741,0.725114504 67.0369036,0.415458015 C66.728033,0.105801527 65.9677157,-0.0777480916 65.3590355,0.145343511 C64.7487563,0.368435115 22.0638579,18.8887786 21.581231,18.9929771 C21.0988706,19.0966412 19.577703,20.844771 19.2456472,21.1226336" id="Fill-1" fill="#E97293" sketch:type="MSShapeGroup"></path>
            <path d="M31.8432487,34.7370992 L48.1233122,54.1498092 C48.1233122,54.1498092 49.3974365,55.1388931 50.4359772,54.046145 C52.0946574,52.3009542 67.6482487,37.7505725 67.6482487,37.7505725 C67.6482487,37.7505725 69.1105203,36.1507252 67.9198096,34.908626 C65.9543909,32.8583206 50.6489086,15.883855 50.6489086,15.883855 L31.8432487,34.7370992" id="Fill-2" fill="#D3547B" sketch:type="MSShapeGroup"></path>
            <path d="M66.6710025,0.185687023 L90.7218655,90.5607634 C90.7218655,90.5607634 91.2961675,89.8858779 91.4779188,89.1129389 C91.6599365,88.3410687 104.675406,39.2940458 104.799594,38.8863359 C104.923515,38.4783588 104.864086,37.9044656 104.375596,37.4187405 C103.886041,36.9343511 68.2404061,1.1910687 68.0495939,0.999770992 C67.6954188,0.644961832 66.9548223,0.227633588 66.6710025,0.185687023" id="Fill-3" fill="#D3547B" sketch:type="MSShapeGroup"></path>
            <path d="M90.4505711,90.8479771 L0.361370558,66.9461832 C0.361370558,66.9461832 0.672106599,67.6491221 1.00469543,67.9881679 C1.33621827,68.3277481 37.2091751,104.282366 37.4722081,104.546069 C37.7349746,104.809504 38.0502411,105.08416 38.8939721,104.876565 C39.956231,104.616069 89.0066878,91.623855 89.0066878,91.623855 C89.0066878,91.623855 89.7339594,91.4878626 90.4505711,90.8479771" id="Fill-4" fill="#BF4C76" sketch:type="MSShapeGroup"></path>
            <path d="M64.8836041,0.125038168 C64.8836041,0.125038168 16.6683503,12.5233206 15.3593147,12.8618321 C13.286764,13.3964504 12.8704949,15.2672137 12.8704949,15.2672137 C12.8704949,15.2672137 0.434390863,63.9319084 0.231319797,64.8608779 C0.0135913706,65.8550382 0.20786802,66.4473664 0.20786802,66.4473664 L66.3765228,0.110343511 C66.5886548,0.16778626 65.831269,-0.0844274809 64.8836041,0.125038168" id="Fill-5" fill="#FFBED0" sketch:type="MSShapeGroup"></path>
            <path d="M31.5098604,35.0657252 L47.7899239,54.4784351 C47.7899239,54.4784351 49.0637817,55.4675191 50.1025888,54.374771 C51.761269,52.6295802 67.3148604,38.0791985 67.3148604,38.0791985 C67.3148604,38.0791985 68.777132,36.4793511 67.5864213,35.2372519 C65.6210025,33.1869466 50.3155203,16.2124809 50.3155203,16.2124809 L31.5098604,35.0657252" id="Fill-6" fill="#EFB47F" sketch:type="MSShapeGroup"></path>
            <path d="M31.5098604,35.0657252 L18.0549365,12.1677099 L45.8348985,5.02343511 L50.3155203,16.2124809 L31.5098604,35.0657252" id="Fill-7" fill="#F8CDA1" sketch:type="MSShapeGroup"></path>
            <path d="M61.6461929,37.5552672 C61.9625254,38.1708397 61.7845051,38.8951527 61.2480457,39.1716794 C60.7123858,39.4476718 60.0221574,39.1732824 59.7050254,38.5574427 C59.3892259,37.9413359 59.5669797,37.2180916 60.1029061,36.9415649 C60.6388325,36.6645038 61.3295939,36.9394275 61.6461929,37.5552672" id="Fill-8" fill="#BC7835" sketch:type="MSShapeGroup"></path>
            <path d="M57.436599,41.5166794 C57.753198,42.1325191 57.5749112,42.8562977 57.0392513,43.1330916 C56.5030584,43.4093511 55.8128299,43.1344275 55.4959645,42.5191221 C55.1798985,41.9027481 55.3573858,41.1792366 55.8935787,40.9027099 C56.4295051,40.625916 57.120533,40.9005725 57.436599,41.5166794" id="Fill-9" fill="#BC7835" sketch:type="MSShapeGroup"></path>
            <path d="M52.7830203,45.5812214 C53.0985533,46.1965267 52.921066,46.9205725 52.3848731,47.1973664 C51.8494797,47.4741603 51.1584518,47.1987023 50.8418528,46.5831298 C50.5255203,45.9672901 50.7032741,45.2437786 51.239467,44.9672519 C51.7753934,44.6901908 52.4661548,44.9648473 52.7830203,45.5812214" id="Fill-10" fill="#BC7835" sketch:type="MSShapeGroup"></path>
            <path d="M53.9462817,29.8440458 C54.2620812,30.4596183 54.0845939,31.1836641 53.548401,31.4601908 C53.0124746,31.7367176 52.3217132,31.4620611 52.0053807,30.8462214 C51.6893147,30.2303817 51.8665355,29.5068702 52.4027284,29.2300763 C52.9383883,28.9535496 53.6296827,29.2279389 53.9462817,29.8440458" id="Fill-11" fill="#BC7835" sketch:type="MSShapeGroup"></path>
            <path d="M49.7366878,33.8051908 C50.0527538,34.4210305 49.8752665,35.1450763 49.3390736,35.4216031 C48.8036802,35.6981298 48.1123858,35.4229389 47.7963198,34.8079008 C47.4799873,34.1915267 47.6572081,33.4680153 48.1936675,33.1912214 C48.7298604,32.9146947 49.4206218,33.1893511 49.7366878,33.8051908" id="Fill-12" fill="#BC7835" sketch:type="MSShapeGroup"></path>
            <path d="M45.0825761,37.8697328 C45.3986421,38.4855725 45.2211548,39.209084 44.6849619,39.486145 C44.149302,39.7624046 43.4582741,39.4874809 43.1422081,38.8721756 C42.8253426,38.2560687 43.0030964,37.5325573 43.5395558,37.2557634 C44.0757487,36.9792366 44.7665102,37.2538931 45.0825761,37.8697328" id="Fill-13" fill="#BC7835" sketch:type="MSShapeGroup"></path>
            <path d="M56.3913959,35.0408779 C56.7151904,35.6524427 56.5470305,36.3788931 56.0145685,36.6620992 C55.4818401,36.9455725 54.7876142,36.6794656 54.4638198,36.0681679 C54.1397589,35.4560687 54.3079188,34.730687 54.8403807,34.4472137 C55.3723096,34.1632061 56.0665355,34.4290458 56.3913959,35.0408779" id="Fill-14" fill="#BC7835" sketch:type="MSShapeGroup"></path>
            <path d="M60.6993274,31.0685115 C61.0233883,31.6800763 60.8549619,32.4065267 60.3225,32.69 C59.7900381,32.9732061 59.0958122,32.7073664 58.7717513,32.0960687 C58.4471574,31.4839695 58.6155838,30.7585878 59.1483122,30.4751145 C59.6805076,30.1911069 60.375,30.4569466 60.6993274,31.0685115" id="Fill-15" fill="#BC7835" sketch:type="MSShapeGroup"></path>
            <path d="M51.5960406,39.5577481 C51.919835,40.1695802 51.7511421,40.8954962 51.2186802,41.1789695 C50.6870178,41.4624427 49.9927919,41.1966031 49.6684645,40.5853053 C49.3438706,39.9732061 49.5125635,39.2475573 50.0450254,38.9638168 C50.5774873,38.6803435 51.2719797,38.9461832 51.5960406,39.5577481" id="Fill-16" fill="#BC7835" sketch:type="MSShapeGroup"></path>
            <path d="M46.7068782,43.9030916 C47.0306726,44.5146565 46.8622462,45.2408397 46.3297843,45.524313 C45.7973223,45.8077863 45.1028299,45.5416794 44.7790355,44.9301145 C44.4547081,44.3182824 44.622868,43.5926336 45.1555964,43.3094275 C45.6880584,43.025687 46.3822843,43.2912595 46.7068782,43.9030916" id="Fill-17" fill="#BC7835" sketch:type="MSShapeGroup"></path>
            <path d="M48.348769,27.5065267 C48.6733629,28.1180916 48.5046701,28.8442748 47.9719416,29.1277481 C47.4394797,29.4112214 46.7452538,29.1451145 46.4214594,28.5335496 C46.0968655,27.9217176 46.2652919,27.1963359 46.7980203,26.9125954 C47.3302157,26.628855 48.0241751,26.8949618 48.348769,27.5065267" id="Fill-18" fill="#BC7835" sketch:type="MSShapeGroup"></path>
            <path d="M52.656967,23.5341603 C52.9807614,24.1457252 52.812335,24.8719084 52.2796066,25.1553817 C51.7476777,25.438855 51.0531853,25.1730153 50.7288579,24.5614504 C50.4050635,23.9496183 50.5729569,23.2239695 51.1062183,22.9404962 C51.6384137,22.6564885 52.3326396,22.9223282 52.656967,23.5341603" id="Fill-19" fill="#BC7835" sketch:type="MSShapeGroup"></path>
            <path d="M43.5539467,32.0233969 C43.8777411,32.6349618 43.7093147,33.361145 43.1765863,33.6446183 C42.6446574,33.9280916 41.950165,33.6622519 41.6258376,33.050687 C41.3020431,32.438855 41.4699365,31.7132061 42.0023985,31.4294656 C42.5351269,31.1459924 43.2293528,31.4118321 43.5539467,32.0233969" id="Fill-20" fill="#BC7835" sketch:type="MSShapeGroup"></path>
            <path d="M38.6642513,36.3687405 C38.9880457,36.9800382 38.8198858,37.7064885 38.2868909,37.9896947 C37.7549619,38.2731679 37.060736,38.0073282 36.7364086,37.3957634 C36.4120812,36.7839313 36.5805076,36.0582824 37.113236,35.7748092 C37.645698,35.4910687 38.3401904,35.7569084 38.6642513,36.3687405" id="Fill-21" fill="#BC7835" sketch:type="MSShapeGroup"></path>
            <path d="M34.1183376,32.5011069 C33.7247208,32.3504198 33.3225761,32.0004198 32.8924492,31.4917176 C31.6487056,30.0206489 20.9120558,11.4332443 20.9120558,11.4332443 L43.1704569,5.70874046 L48.0881345,18.4452672" id="Fill-22" fill="#FCE4D2" sketch:type="MSShapeGroup"></path>
            <path d="M48.5907487,18.8903817 C48.5907487,18.8903817 48.4303173,18.6891985 49.0163452,19.2518702 C49.6023731,19.814542 49.9922589,20.7654198 49.2537944,21.4226718 C48.5155964,22.0801908 38.0702284,31.5921756 37.0037056,32.3985115 C35.9371827,33.2045802 34.5889721,32.9406107 34.5889721,32.9406107 C34.5889721,32.9406107 34.3368655,32.8145038 34.0863579,32.4957634" id="Fill-23" fill="#D79245" sketch:type="MSShapeGroup"></path>
            <path d="M36.6420685,41.2925191 L35.4161802,45.7292366 C35.3474239,45.9782443 35.0905203,46.1241221 34.8424112,46.0551908 C34.5940355,45.9862595 34.4485279,45.7287023 34.5170178,45.4799618 L35.9369162,40.3445802" id="Fill-24" fill="#BF4C76" sketch:type="MSShapeGroup"></path>
            <path d="M56.7039975,23.2712595 L61.3319924,17.738855 C61.4977538,17.5408779 61.7917005,17.5149618 61.9889086,17.681145 C62.1866497,17.8470611 62.2122335,18.1417557 62.0467386,18.3397328 L57.3297335,23.9784733" id="Fill-25" fill="#BF4C76" sketch:type="MSShapeGroup"></path>
            <path d="M61.3495812,17.7401908 C61.5201396,17.5467557 61.8146193,17.5283206 62.0078299,17.699313 L64.6720051,20.0432443 C64.8649492,20.2139695 64.8833376,20.5094656 64.7125127,20.7031679 C64.5424873,20.8966031 64.2472081,20.9150382 64.0545305,20.7440458 L61.3900888,18.4001145 C61.1971447,18.2291221 61.1790228,17.933626 61.3495812,17.7401908" id="Fill-26" fill="#BF4C76" sketch:type="MSShapeGroup"></path>
            <path d="M22.4345558,19.6208397 L20.5474873,22.5440076 C20.4073096,22.760687 20.1186929,22.8226718 19.9025635,22.6824046 C19.6861675,22.5424046 19.6243401,22.2527863 19.7642513,22.0361069 L21.9044924,18.7199237" id="Fill-27" fill="#E97293" sketch:type="MSShapeGroup"></path>
            <path d="M27.5955457,28.4037023 L23.7966244,27.4453435 C23.5469162,27.3825573 23.3952792,27.1282061 23.4581726,26.8778626 C23.5207995,26.6277863 23.7742386,26.4754962 24.0239467,26.5385496 L26.9306345,27.2716794" id="Fill-28" fill="#E97293" sketch:type="MSShapeGroup"></path>
            <path d="M24.0239467,26.5564504 C24.2723223,26.6248473 24.4183629,26.8818702 24.3501396,27.1308779 L23.4232614,30.5608779 C23.3550381,30.8098855 23.098401,30.9562977 22.8494924,30.8876336 C22.6019162,30.819771 22.4550761,30.5622137 22.5238325,30.3137405 L23.4507107,26.8837405 C23.518934,26.6344656 23.7755711,26.4880534 24.0239467,26.5564504" id="Fill-29" fill="#E97293" sketch:type="MSShapeGroup"></path>
            <path d="M47.8624112,10.086145 L49.4909772,9.43824427 C49.7305584,9.34312977 50.0015863,9.46041985 50.0961929,9.70061069 C50.191599,9.94053435 50.0743401,10.2122519 49.8350254,10.3076336 L48.2096574,10.9541985" id="Fill-30" fill="#E97293" sketch:type="MSShapeGroup"></path>
            <path d="M50.6950127,5.9248855 C50.9439213,5.99087786 51.0923604,6.24629771 51.026802,6.49610687 L50.133769,9.93492366 C50.0682107,10.1847328 49.8129061,10.3338168 49.5634645,10.2678244 C49.3150888,10.2020992 49.1658503,9.94614504 49.2319416,9.69687023 L50.1249746,6.25751908 C50.190533,6.0079771 50.4458376,5.85889313 50.6950127,5.9248855" id="Fill-31" fill="#E97293" sketch:type="MSShapeGroup"></path>
            <path d="M48.0881345,18.4452672 L34.0863579,32.4957634 C34.0863579,32.4957634 35.4345685,32.7597328 36.5010914,31.9533969 C37.5676142,31.1473282 48.0129822,21.6350763 48.7514467,20.9778244 C49.4896447,20.3203053 49.0997589,19.3694275 48.513731,18.8067557 C47.927703,18.244084 48.0881345,18.4452672 48.0881345,18.4452672" id="Fill-32" fill="#F8CDA1" sketch:type="MSShapeGroup"></path>
            <path d="M46.196802,4.93045802 L50.6433122,15.883855 L50.3155203,16.2124809 L45.8348985,5.02343511 L46.196802,4.93045802" id="Fill-33" fill="#F286A7" sketch:type="MSShapeGroup"></path>
        </g>
    </g>
</svg>

<svg width="105" height="105" xmlns="http://www.w3.org/2000/svg"><g fill="none" fill-rule="evenodd"><path d="M19.246 21.123s-1.227 2.62-1.31 3.156L.195 66.397s.05.416.367.95c.48.81 38.524 32.203 38.976 32.657.452.454 4.412-3.066 4.9-3.223.49-.156 44.58-5.316 45.15-5.468.656-.173 1.508-.8 1.642-2 .125-1.122 13.023-49.26 13.31-50.12.284-.857-.228-1.422-.347-1.525-.12-.105-36.85-36.945-37.158-37.255-.31-.31-1.07-.493-1.678-.27-.61.223-43.296 18.744-43.78 18.848-.48.104-2.002 1.852-2.334 2.13" fill="#E97293"/><path d="M31.843 34.737l16.28 19.413s1.274.99 2.313-.104C52.096 52.3 67.648 37.75 67.648 37.75s1.463-1.6.272-2.84c-1.966-2.052-17.27-19.026-17.27-19.026L31.842 34.737M66.67.186L90.723 90.56s.574-.674.756-1.447c.182-.772 13.197-49.82 13.322-50.227.124-.408.064-.982-.424-1.467C103.886 36.933 68.24 1.19 68.05 1c-.355-.355-1.095-.772-1.38-.814" fill="#D3547B"/><path d="M90.45 90.848L.36 66.946s.312.703.645 1.042c.33.34 36.204 36.294 36.467 36.558.263.264.578.538 1.422.33 1.062-.26 50.113-13.252 50.113-13.252s.727-.136 1.444-.776" fill="#BF4C76"/><path d="M64.884.125S16.668 12.523 15.36 12.862c-2.073.534-2.49 2.405-2.49 2.405S.434 63.932.23 64.86c-.216.995-.022 1.587-.022 1.587L66.378.11c.21.058-.547-.194-1.494.015" fill="#FFBED0"/><path d="M31.51 35.066l16.28 19.412s1.274.99 2.313-.103C51.76 52.63 67.315 38.08 67.315 38.08s1.462-1.6.27-2.843c-1.964-2.05-17.27-19.025-17.27-19.025L31.51 35.066" fill="#EFB47F"/><path d="M31.51 35.066L18.055 12.168l27.78-7.145 4.48 11.19L31.51 35.065" fill="#F8CDA1"/><path d="M61.646 37.555c.317.616.14 1.34-.398 1.617-.536.276-1.226 0-1.543-.615-.316-.616-.138-1.34.398-1.615.536-.277 1.227-.003 1.543.613M57.437 41.517c.316.616.138 1.34-.398 1.616-.537.276-1.227 0-1.544-.614-.316-.617-.14-1.34.398-1.617.536-.277 1.227-.002 1.543.614M52.783 45.58c.316.617.138 1.34-.398 1.617-.536.277-1.227.002-1.543-.614-.316-.616-.14-1.34.397-1.616.535-.277 1.226-.002 1.543.614M53.946 29.844c.316.616.14 1.34-.398 1.616-.536.277-1.226.002-1.543-.614-.316-.616-.138-1.34.398-1.616.535-.276 1.227-.002 1.543.614M49.737 33.805c.316.616.138 1.34-.398 1.617-.536.276-1.228 0-1.544-.614-.316-.616-.14-1.34.398-1.617.536-.275 1.227 0 1.543.615M45.083 37.87c.316.616.138 1.34-.398 1.616s-1.227 0-1.543-.614c-.317-.616-.14-1.34.398-1.616.536-.277 1.227-.002 1.543.614M56.39 35.04c.325.612.157 1.34-.375 1.622-.533.284-1.227.017-1.55-.594-.325-.612-.157-1.337.375-1.62.532-.285 1.227-.02 1.55.593M60.7 31.07c.323.61.155 1.337-.378 1.62-.532.283-1.226.017-1.55-.594-.325-.612-.156-1.337.376-1.62.533-.285 1.227-.02 1.55.593M51.596 39.558c.324.612.155 1.337-.377 1.62-.533.284-1.227.02-1.552-.593-.324-.612-.155-1.337.377-1.62.532-.285 1.227-.02 1.55.593M46.707 43.903c.324.612.155 1.338-.377 1.62-.533.285-1.227.02-1.55-.593-.325-.612-.157-1.337.376-1.62.532-.284 1.226-.02 1.55.593M48.35 27.507c.323.61.155 1.337-.378 1.62-.533.284-1.227.018-1.55-.593-.325-.612-.157-1.338.376-1.62.532-.285 1.226-.02 1.55.593M52.657 23.534c.324.612.155 1.338-.377 1.62-.532.285-1.227.02-1.55-.593-.325-.61-.157-1.336.376-1.62.532-.284 1.227-.018 1.55.594M43.554 32.023c.324.612.155 1.338-.377 1.622-.532.283-1.227.017-1.55-.594-.325-.61-.157-1.337.375-1.62.533-.284 1.227-.018 1.552.593M38.664 36.37c.324.61.156 1.336-.377 1.62-.532.283-1.226.017-1.55-.594-.325-.612-.156-1.338.376-1.62.533-.285 1.227-.02 1.55.593" fill="#BC7835"/><path d="M34.118 32.5c-.393-.15-.795-.5-1.226-1.008-1.243-1.47-11.98-20.06-11.98-20.06L43.17 5.71l4.918 12.735" fill="#FCE4D2"/><path d="M48.59 18.89s-.16-.2.426.362c.586.563.976 1.513.238 2.17-.738.658-11.184 10.17-12.25 10.977-1.067.805-2.415.54-2.415.54s-.253-.125-.504-.444" fill="#D79245"/><path d="M36.642 41.293l-1.226 4.436c-.07.248-.325.394-.574.325-.248-.07-.393-.326-.325-.575l1.42-5.135M56.704 23.27l4.628-5.53c.166-.2.46-.225.657-.06.197.167.222.462.057.66l-4.717 5.638" fill="#BF4C76"/><path d="M61.35 17.74c.17-.193.465-.212.658-.04l2.664 2.343c.193.17.21.466.04.66-.17.194-.465.212-.657.04L61.39 18.4c-.193-.17-.21-.466-.04-.66" fill="#BF4C76"/><path d="M22.435 19.62l-1.888 2.924c-.14.217-.428.28-.644.138-.217-.14-.28-.43-.14-.646l2.14-3.316M27.596 28.404l-3.8-.96c-.25-.06-.4-.316-.338-.566.063-.25.316-.403.566-.34l2.907.734" fill="#E97293"/><path d="M24.024 26.556c.248.07.394.326.326.575l-.927 3.43c-.068.25-.325.396-.574.328-.248-.068-.395-.326-.326-.574l.927-3.43c.07-.25.326-.396.574-.328M47.862 10.086l1.63-.648c.24-.095.51.022.604.263.096.24-.022.512-.26.608l-1.626.646" fill="#E97293"/><path d="M50.695 5.925c.25.066.397.32.332.57l-.893 3.44c-.066.25-.32.4-.57.333-.25-.066-.398-.322-.332-.57l.893-3.44c.066-.25.32-.4.57-.333" fill="#E97293"/><path d="M48.088 18.445l-14.002 14.05s1.35.265 2.415-.542c1.068-.806 11.513-10.318 12.25-10.975.74-.658.35-1.61-.236-2.17-.586-.564-.426-.363-.426-.363" fill="#F8CDA1"/><path d="M46.197 4.93l4.446 10.954-.327.328-4.48-11.19.36-.092" fill="#F286A7"/></g></svg>
